flaticon/interaction/archive-9.svg

<svg xmlns="http://www.w3.org/2000/svg" width="32" height="32" viewBox="0 0 24 24">
    <path d="M 23.277344 17.878906 L 22.699219 17.769531 C 22.425781 17.714844 22.214844 17.539062 22.113281 17.28125 C 22.011719 17.023438 22.046875 16.75 22.210938 16.527344 L 22.574219 16.03125 C 22.691406 15.875 22.671875 15.652344 22.535156 15.511719 L 21.75 14.730469 C 21.613281 14.59375 21.402344 14.574219 21.242188 14.679688 L 20.757812 15.011719 C 20.527344 15.167969 20.25 15.191406 19.996094 15.082031 C 19.746094 14.972656 19.574219 14.75 19.535156 14.476562 L 19.441406 13.871094 C 19.410156 13.675781 19.242188 13.53125 19.046875 13.53125 L 17.9375 13.53125 C 17.746094 13.53125 17.582031 13.667969 17.542969 13.859375 L 17.402344 14.605469 C 17.351562 14.867188 17.179688 15.078125 16.929688 15.183594 C 16.679688 15.285156 16.410156 15.257812 16.183594 15.109375 L 15.554688 14.679688 C 15.398438 14.574219 15.183594 14.59375 15.050781 14.730469 L 14.265625 15.511719 C 14.125 15.652344 14.109375 15.875 14.226562 16.03125 L 14.589844 16.527344 C 14.75 16.75 14.789062 17.023438 14.6875 17.28125 C 14.585938 17.539062 14.371094 17.714844 14.101562 17.769531 L 13.523438 17.878906 C 13.335938 17.914062 13.199219 18.078125 13.199219 18.273438 L 13.199219 19.378906 C 13.199219 19.578125 13.34375 19.746094 13.539062 19.773438 L 14.144531 19.867188 C 14.417969 19.910156 14.636719 20.078125 14.75 20.332031 C 14.859375 20.585938 14.832031 20.859375 14.679688 21.089844 L 14.347656 21.578125 C 14.242188 21.734375 14.261719 21.949219 14.398438 22.085938 L 15.179688 22.867188 C 15.320312 23.007812 15.539062 23.023438 15.699219 22.90625 L 16.195312 22.542969 C 16.417969 22.382812 16.691406 22.347656 16.949219 22.445312 C 17.207031 22.546875 17.382812 22.761719 17.433594 23.03125 L 17.546875 23.609375 C 17.582031 23.796875 17.746094 23.933594 17.9375 23.933594 L 19.046875 23.933594 C 19.242188 23.933594 19.410156 23.789062 19.441406 23.59375 L 19.507812 23.167969 C 19.550781 22.894531 19.726562 22.667969 19.984375 22.558594 C 20.242188 22.453125 20.527344 22.488281 20.753906 22.652344 L 21.101562 22.90625 C 21.257812 23.023438 21.480469 23.007812 21.621094 22.867188 L 22.402344 22.085938 C 22.539062 21.949219 22.558594 21.738281 22.453125 21.578125 L 22.121094 21.089844 C 21.96875 20.863281 21.941406 20.585938 22.050781 20.332031 C 22.160156 20.078125 22.382812 19.910156 22.65625 19.867188 L 23.261719 19.773438 C 23.457031 19.746094 23.601562 19.578125 23.601562 19.378906 L 23.601562 18.273438 C 23.601562 18.078125 23.464844 17.914062 23.277344 17.878906 Z M 22.800781 19.035156 L 22.53125 19.078125 C 21.992188 19.160156 21.539062 19.511719 21.320312 20.011719 C 21.097656 20.515625 21.152344 21.085938 21.460938 21.539062 L 21.605469 21.753906 L 21.296875 22.058594 L 21.226562 22.007812 C 20.773438 21.675781 20.195312 21.605469 19.679688 21.820312 C 19.160156 22.035156 18.800781 22.492188 18.714844 23.046875 L 18.703125 23.132812 L 18.269531 23.132812 L 18.21875 22.878906 C 18.117188 22.34375 17.75 21.902344 17.242188 21.703125 C 16.730469 21.5 16.164062 21.574219 15.722656 21.898438 L 15.503906 22.058594 L 15.195312 21.753906 L 15.339844 21.539062 C 15.648438 21.085938 15.699219 20.515625 15.480469 20.011719 C 15.261719 19.511719 14.808594 19.160156 14.265625 19.078125 L 14 19.035156 L 14 18.601562 L 14.253906 18.554688 C 14.792969 18.449219 15.230469 18.085938 15.429688 17.574219 C 15.632812 17.066406 15.558594 16.496094 15.234375 16.054688 L 15.074219 15.835938 L 15.382812 15.527344 L 15.738281 15.769531 C 16.179688 16.070312 16.742188 16.128906 17.238281 15.921875 C 17.730469 15.71875 18.085938 15.28125 18.1875 14.753906 L 18.269531 14.332031 L 18.703125 14.332031 L 18.746094 14.601562 C 18.828125 15.140625 19.175781 15.59375 19.679688 15.8125 C 20.183594 16.035156 20.753906 15.980469 21.207031 15.671875 L 21.417969 15.527344 L 21.726562 15.835938 L 21.566406 16.054688 C 21.242188 16.496094 21.167969 17.0625 21.371094 17.574219 C 21.570312 18.085938 22.011719 18.449219 22.546875 18.554688 L 22.800781 18.601562 Z M 22.800781 19.035156"/>
    <path d="M18.398438 16.734375C17.296875 16.734375 16.398438 17.628906 16.398438 18.734375 16.398438 19.835938 17.296875 20.734375 18.398438 20.734375 19.503906 20.734375 20.398438 19.835938 20.398438 18.734375 20.398438 17.628906 19.503906 16.734375 18.398438 16.734375zM18.398438 19.933594C17.738281 19.933594 17.199219 19.394531 17.199219 18.734375 17.199219 18.070312 17.738281 17.53125 18.398438 17.53125 19.0625 17.53125 19.601562 18.070312 19.601562 18.734375 19.601562 19.394531 19.0625 19.933594 18.398438 19.933594zM9.003906 7.199219L13.398438 7.199219C14.171875 7.199219 14.800781 6.570312 14.800781 5.796875L14.800781 5.199219C14.800781 4.980469 14.621094 4.800781 14.398438 4.800781 14.179688 4.800781 14 4.980469 14 5.199219L14 5.796875C14 6.128906 13.730469 6.398438 13.398438 6.398438L9.003906 6.398438C8.671875 6.398438 8.398438 6.128906 8.398438 5.796875L8.398438 5.199219C8.398438 4.980469 8.222656 4.800781 8 4.800781 7.777344 4.800781 7.601562 4.980469 7.601562 5.199219L7.601562 5.796875C7.601562 6.570312 8.230469 7.199219 9.003906 7.199219zM8 16.398438C7.777344 16.398438 7.601562 16.578125 7.601562 16.800781L7.601562 17.398438C7.601562 18.171875 8.230469 18.800781 9.003906 18.800781L12 18.800781C12.222656 18.800781 12.398438 18.621094 12.398438 18.398438 12.398438 18.179688 12.222656 18 12 18L9.003906 18C8.671875 18 8.398438 17.730469 8.398438 17.398438L8.398438 16.800781C8.398438 16.578125 8.222656 16.398438 8 16.398438zM8 16.398438"/>
    <path d="M 13.601562 23.199219 L 1.53125 23.199219 C 1.347656 23.199219 1.199219 23.050781 1.199219 22.867188 L 1.199219 12.398438 L 21.199219 12.398438 L 21.199219 13.601562 C 21.199219 13.820312 21.378906 14 21.601562 14 C 21.820312 14 22 13.820312 22 13.601562 L 22 1.132812 C 22 0.507812 21.492188 0 20.867188 0 L 1.53125 0 C 0.910156 0 0.398438 0.507812 0.398438 1.132812 L 0.398438 22.867188 C 0.398438 23.492188 0.910156 24 1.53125 24 L 13.601562 24 C 13.820312 24 14 23.820312 14 23.601562 C 14 23.378906 13.820312 23.199219 13.601562 23.199219 Z M 1.53125 0.800781 L 20.867188 0.800781 C 21.050781 0.800781 21.199219 0.949219 21.199219 1.132812 L 21.199219 11.601562 L 1.199219 11.601562 L 1.199219 1.132812 C 1.199219 0.949219 1.347656 0.800781 1.53125 0.800781 Z M 1.53125 0.800781"/>
</svg>

<svg xmlns="http://www.w3.org/2000/svg" width="32" height="32" viewBox="0 0 24 24">
    <path d="M23.277 17.879l-.578-.11a.779.779 0 0 1-.586-.488.77.77 0 0 1 .098-.754l.363-.496a.403.403 0 0 0-.039-.52l-.785-.78a.402.402 0 0 0-.508-.051l-.484.332a.781.781 0 0 1-.762.07.772.772 0 0 1-.46-.605l-.095-.606a.402.402 0 0 0-.394-.34h-1.11a.405.405 0 0 0-.394.328l-.14.746a.793.793 0 0 1-1.219.504l-.63-.43a.397.397 0 0 0-.503.051l-.785.782a.399.399 0 0 0-.04.52l.364.495c.16.223.2.496.098.754a.785.785 0 0 1-.586.489l-.579.109a.399.399 0 0 0-.324.394v1.106c0 .2.145.367.34.394l.606.094c.273.043.492.211.605.465a.784.784 0 0 1-.07.758l-.332.488a.403.403 0 0 0 .05.508l.782.781c.14.14.36.156.52.04l.495-.364a.79.79 0 0 1 1.239.488l.113.578c.035.188.2.325.39.325h1.11a.402.402 0 0 0 .394-.34l.067-.426a.789.789 0 0 1 1.246-.516l.348.254a.399.399 0 0 0 .52-.039l.78-.781a.402.402 0 0 0 .051-.508l-.332-.488a.783.783 0 0 1-.07-.758.777.777 0 0 1 .605-.465l.606-.094a.396.396 0 0 0 .34-.394v-1.106a.399.399 0 0 0-.325-.394zm-.476 1.156l-.27.043c-.539.082-.992.434-1.21.934a1.57 1.57 0 0 0 .14 1.527l.144.215-.308.305-.07-.051a1.574 1.574 0 0 0-1.547-.188c-.52.215-.88.672-.965 1.227l-.012.086h-.433l-.051-.254a1.576 1.576 0 0 0-.977-1.176 1.57 1.57 0 0 0-1.52.195l-.218.16-.309-.304.145-.215a1.58 1.58 0 0 0 .14-1.527 1.578 1.578 0 0 0-1.214-.934L14 19.035v-.433l.254-.047c.539-.106.976-.47 1.176-.98a1.572 1.572 0 0 0-.196-1.52l-.16-.22.309-.308.355.243c.442.3 1.004.359 1.5.152.492-.203.848-.64.95-1.168l.082-.422h.433l.043.27c.082.539.43.992.934 1.21a1.57 1.57 0 0 0 1.527-.14l.211-.145.309.309-.16.219a1.57 1.57 0 0 0-.196 1.52c.2.51.64.874 1.176.98l.254.047zm0 0"/>
    <path d="M18.398 16.734c-1.101 0-2 .895-2 2 0 1.102.899 2 2 2a1.999 1.999 0 1 0 0-4zm0 3.2a1.202 1.202 0 0 1 0-2.403c.665 0 1.204.54 1.204 1.203 0 .66-.54 1.2-1.204 1.2zm0 0M9.004 7.2h4.394c.774 0 1.403-.63 1.403-1.403v-.598a.401.401 0 0 0-.801 0v.598c0 .332-.27.601-.602.601H9.004a.605.605 0 0 1-.606-.601v-.598a.398.398 0 1 0-.796 0v.598c0 .773.628 1.402 1.402 1.402zm0 0M8 16.398a.398.398 0 0 0-.398.403v.597c0 .774.628 1.403 1.402 1.403H12c.223 0 .398-.18.398-.403A.398.398 0 0 0 12 18H9.004a.605.605 0 0 1-.606-.602v-.597A.398.398 0 0 0 8 16.398zm0 0"/>
    <path d="M13.602 23.2H1.532a.332.332 0 0 1-.333-.333V12.398h20v1.204a.401.401 0 0 0 .801 0V1.132C22 .509 21.492 0 20.867 0H1.531C.911 0 .398.508.398 1.133v21.734C.398 23.492.91 24 1.531 24h12.07a.4.4 0 0 0 0-.8zM1.532.8h19.335c.184 0 .332.15.332.333v10.469h-20V1.132c0-.183.149-.331.332-.331zm0 0"/>
</svg>
